X: 1
T: Gan Ainm
M: 6/8
L: 1/8
R: jig
K: Gmaj
Bdd dBG|~B3 dBG|~B3 dBG|AGE GED|
~B3 dBG|BAB def|gfe dBG|AGA BGE:|
BcA BGE|~E3 BGE|BcA BGE|~G3 GED|
BcA BGE|BAB def|gfe dBG|AGA BGE:|
